; generated by PrusaSlicer 2.7.1+win64 on 2024-01-29 at 22:04:27 UTC

; 

; external perimeters extrusion width = 0.45mm
; perimeters extrusion width = 0.45mm
; infill extrusion width = 0.45mm
; solid infill extrusion width = 0.45mm
; top infill extrusion width = 0.40mm
; support material extrusion width = 0.35mm
; first layer extrusion width = 0.42mm

; external perimeters extrusion width = 0.45mm
; perimeters extrusion width = 0.45mm
; infill extrusion width = 0.45mm
; solid infill extrusion width = 0.45mm
; top infill extrusion width = 0.40mm
; support material extrusion width = 0.35mm
; first layer extrusion width = 0.42mm

; external perimeters extrusion width = 0.45mm
; perimeters extrusion width = 0.45mm
; infill extrusion width = 0.45mm
; solid infill extrusion width = 0.45mm
; top infill extrusion width = 0.40mm
; support material extrusion width = 0.35mm
; first layer extrusion width = 0.42mm

; external perimeters extrusion width = 0.45mm
; perimeters extrusion width = 0.45mm
; infill extrusion width = 0.45mm
; solid infill extrusion width = 0.45mm
; top infill extrusion width = 0.40mm
; support material extrusion width = 0.35mm
; first layer extrusion width = 0.42mm

M73 P0 R23
M73 Q0 S23

; printing object caseBottomV1.1.stl id:2 copy 0
; stop printing object caseBottomV1.1.stl id:2 copy 0
; printing object caseTopV1.1.stl id:3 copy 0
; stop printing object caseTopV1.1.stl id:3 copy 0
; printing object caseTopV1.1.stl id:1 copy 0
; stop printing object caseTopV1.1.stl id:1 copy 0
; printing object caseBottomV1.1.stl id:0 copy 0
; stop printing object caseBottomV1.1.stl id:0 copy 0

;TYPE:Custom
M862.3 P "MK3S" ; printer model check
M862.1 P0.4 ; nozzle diameter check
M115 U3.9.3 ; tell printer latest fw version
G90 ; use absolute coordinates
M83 ; extruder relative mode
M104 S215 ; set extruder temp
M140 S60 ; set bed temp
M190 S60 ; wait for bed temp
M109 S215 ; wait for extruder temp
G28 W ; home all without mesh bed level
G80 ; mesh bed leveling
G1 Y-3.0 F1000.0 ; go outside print area
G92 E0.0
G1 X60.0 E9.0 F1000.0 ; intro line
G1 X100.0 E12.5 F1000.0 ; intro line
G92 E0.0
M221 S95

; Don't change E values below. Excessive value can damage the printer.

M907 E538 ; set extruder motor current
G21 ; set units to millimeters
G90 ; use absolute coordinates
M83 ; use relative distances for extrusion
M900 K0.05 ; Filament gcode LA 1.5
M900 K30 ; Filament gcode LA 1.0
M107
;LAYER_CHANGE
;Z:0.2
;HEIGHT:0.2
;BEFORE_LAYER_CHANGE
G92 E0.0
;0.2


G1 E-.8 F2100
G1 Z.2 F10800
;AFTER_LAYER_CHANGE
;0.2
G1 X79.229 Y81.706
G1 Z.2
G1 E.8 F2100
M204 S1000
;TYPE:Skirt/Brim
;WIDTH:0.42
G1 F1200
G1 X80.274 Y80.829 E.04277
G1 X81.197 Y80.636 E.02957
G1 X131.135 Y80.267 E1.56581
G1 X164.707 Y80.267 E1.05263
G1 X166.014 Y80.658 E.04277
G1 X166.891 Y81.704 E.0428
G1 X167.084 Y82.644 E.03009
G1 X167.084 Y131.987 E1.54712
G1 X166.693 Y133.294 E.04277
M73 Q1 S23
G1 X165.647 Y134.171 E.0428
G1 X164.725 Y134.364 E.02954
G1 X114.804 Y134.733 E1.56528
M73 P1 R23
G1 X81.214 Y134.733 E1.05319
G1 X79.907 Y134.342 E.04277
G1 X79.031 Y133.296 E.04278
G1 X78.837 Y132.356 E.03009
G1 X78.837 Y83.013 E1.54712
G1 X79.211 Y81.763 E.04091
; printing object caseBottomV1.1.stl id:2 copy 0
;WIPE_START
G1 F8640
G1 X79.229 Y81.706 E-.0138
G1 X80.274 Y80.829 E-.31501
G1 X81.197 Y80.636 E-.21773
G1 X82.295 Y80.628 E-.25346
;WIPE_END
G1 Z.6 F10800
G1 X164.707 Y131.987
G1 Z.2
G1 E.8 F2100
;TYPE:Support material
G1 F1200
G1 X131.135 Y131.987 E1.05263
G1 X131.135 Y129.68 E.07233
G1 X117.293 Y129.68 E.43401
G1 X117.293 Y109.951 E.61859
G1 X131.135 Y109.951 E.43401
G1 X131.135 Y107.644 E.07233
G1 X164.707 Y107.644 E1.05263
G1 X164.707 Y131.931 E.7615
M73 P1 R22
M73 Q2 S23
;WIPE_START
G1 F8640
M73 P2 R22
G1 X164.707 Y128.466 E-.8
;WIPE_END
G1 Z.6 F10800
G1 X134.413 Y112.78
G1 Z.2
G1 E.8 F2100
G1 F1200
G1 X159.587 Y112.78 E.78931
G1 X159.746 Y112.847 E.00541
G1 X160.035 Y113.229 E.01502
G1 X160.035 Y126.402 E.41303
G1 X159.969 Y126.562 E.00543
G1 X159.587 Y126.85 E.015
G1 X134.413 Y126.85 E.78931
G1 X134.254 Y126.784 E.0054
M73 Q2 S22
G1 X133.965 Y126.402 E.01502
G1 X133.965 Y113.229 E.41303
G1 X134.031 Y113.069 E.00543
G1 X134.361 Y112.802 E.01331
G1 X127.794 Y118.145 F10800
G1 F1200
G1 X128.828 Y118.145 E.03242
G1 X128.828 Y121.486 E.10475
G1 X127.794 Y121.486 E.03242
G1 X127.794 Y118.201 E.103
;WIPE_START
G1 F8640
G1 X127.794 Y121.486 E-.75852
G1 X127.974 Y121.486 E-.04148
;WIPE_END
G1 Z.6 F10800
G1 X164.044 Y131.817
G1 Z.2
G1 E.8 F2100
G1 F1200
G1 X164.044 Y107.983 E.7473
G1 X163.625 Y107.983 E.01314
G1 X163.625 Y131.648 E.742
G1 X163.206 Y131.648 E.01314
G1 X163.206 Y107.983 E.742
G1 X162.787 Y107.983 E.01314
G1 X162.787 Y131.648 E.742
G1 X162.368 Y131.648 E.01314
G1 X162.368 Y107.983 E.742
G1 X161.949 Y107.983 E.01314
G1 X161.949 Y131.648 E.742
G1 X161.53 Y131.648 E.01314
M73 P3 R22
M73 Q3 S22
G1 X161.53 Y107.983 E.742
G1 X161.111 Y107.983 E.01314
G1 X161.111 Y131.648 E.742
G1 X160.692 Y131.648 E.01314
G1 X160.692 Y107.983 E.742
G1 X160.273 Y107.983 E.01314
G1 X160.273 Y131.648 E.742
G1 X159.854 Y131.648 E.01314
G1 X159.854 Y127.107 E.14238
G1 X159.435 Y127.19 E.01339
G1 X159.435 Y131.648 E.13978
G1 X159.016 Y131.648 E.01314
G1 X159.016 Y127.19 E.13978
G1 X158.597 Y127.19 E.01314
G1 X158.597 Y131.648 E.13978
G1 X158.178 Y131.648 E.01314
G1 X158.178 Y127.19 E.13978
G1 X157.759 Y127.19 E.01314
G1 X157.759 Y131.648 E.13978
G1 X157.34 Y131.648 E.01314
G1 X157.34 Y127.19 E.13978
G1 X156.921 Y127.19 E.01314
G1 X156.921 Y131.648 E.13978
G1 X156.502 Y131.648 E.01314
G1 X156.502 Y127.19 E.13978
G1 X156.083 Y127.19 E.01314
G1 X156.083 Y131.648 E.13978
G1 X155.664 Y131.648 E.01314
G1 X155.664 Y127.19 E.13978
G1 X155.245 Y127.19 E.01314
G1 X155.245 Y131.648 E.13978
G1 X154.826 Y131.648 E.01314
G1 X154.826 Y127.19 E.13978
G1 X154.407 Y127.19 E.01314
G1 X154.407 Y131.648 E.13978
G1 X153.988 Y131.648 E.01314
G1 X153.988 Y127.19 E.13978
G1 X153.569 Y127.19 E.01314
G1 X153.569 Y131.648 E.13978
G1 X153.15 Y131.648 E.01314
G1 X153.15 Y127.19 E.13978
G1 X152.731 Y127.19 E.01314
G1 X152.731 Y131.648 E.13978
G1 X152.312 Y131.648 E.01314
G1 X152.312 Y127.19 E.13978
G1 X151.893 Y127.19 E.01314
G1 X151.893 Y131.648 E.13978
G1 X151.474 Y131.648 E.01314
G1 X151.474 Y127.19 E.13978
G1 X151.055 Y127.19 E.01314
G1 X151.055 Y131.648 E.13978
G1 X150.636 Y131.648 E.01314
G1 X150.636 Y127.19 E.13978
G1 X150.217 Y127.19 E.01314
G1 X150.217 Y131.648 E.13978
G1 X149.799 Y131.648 E.01311
G1 X149.799 Y127.19 E.13978
G1 X149.38 Y127.19 E.01314
G1 X149.38 Y131.648 E.13978
G1 X148.961 Y131.648 E.01314
G1 X148.961 Y127.19 E.13978
G1 X148.542 Y127.19 E.01314
G1 X148.542 Y131.648 E.13978
G1 X148.123 Y131.648 E.01314
G1 X148.123 Y127.19 E.13978
G1 X147.704 Y127.19 E.01314
G1 X147.704 Y131.648 E.13978
G1 X147.285 Y131.648 E.01314
G1 X147.285 Y127.19 E.13978
G1 X146.866 Y127.19 E.01314
G1 X146.866 Y131.648 E.13978
G1 X146.447 Y131.648 E.01314
G1 X146.447 Y127.19 E.13978
G1 X146.028 Y127.19 E.01314
M73 Q4 S22
G1 X146.028 Y131.648 E.13978
G1 X145.609 Y131.648 E.01314
G1 X145.609 Y127.19 E.13978
G1 X145.19 Y127.19 E.01314
M73 P4 R22
G1 X145.19 Y131.648 E.13978
G1 X144.771 Y131.648 E.01314
G1 X144.771 Y127.19 E.13978
G1 X144.352 Y127.19 E.01314
G1 X144.352 Y131.648 E.13978
G1 X143.933 Y131.648 E.01314
G1 X143.933 Y127.19 E.13978
G1 X143.514 Y127.19 E.01314
G1 X143.514 Y131.648 E.13978
G1 X143.095 Y131.648 E.01314
G1 X143.095 Y127.19 E.13978
G1 X142.676 Y127.19 E.01314
G1 X142.676 Y131.648 E.13978
G1 X142.257 Y131.648 E.01314
G1 X142.257 Y127.19 E.13978
G1 X141.838 Y127.19 E.01314
G1 X141.838 Y131.648 E.13978
G1 X141.419 Y131.648 E.01314
G1 X141.419 Y127.19 E.13978
G1 X141 Y127.19 E.01314
G1 X141 Y131.648 E.13978
G1 X140.581 Y131.648 E.01314
G1 X140.581 Y127.19 E.13978
G1 X140.162 Y127.19 E.01314
G1 X140.162 Y131.648 E.13978
G1 X139.743 Y131.648 E.01314
G1 X139.743 Y127.19 E.13978
G1 X139.324 Y127.19 E.01314
G1 X139.324 Y131.648 E.13978
G1 X138.905 Y131.648 E.01314
G1 X138.905 Y127.19 E.13978
G1 X138.486 Y127.19 E.01314
G1 X138.486 Y131.648 E.13978
G1 X138.067 Y131.648 E.01314
G1 X138.067 Y127.19 E.13978
G1 X137.648 Y127.19 E.01314
G1 X137.648 Y131.648 E.13978
G1 X137.229 Y131.648 E.01314
G1 X137.229 Y127.19 E.13978
G1 X136.81 Y127.19 E.01314
G1 X136.81 Y131.648 E.13978
G1 X136.391 Y131.648 E.01314
G1 X136.391 Y127.19 E.13978
G1 X135.972 Y127.19 E.01314
G1 X135.972 Y131.648 E.13978
G1 X135.553 Y131.648 E.01314
G1 X135.553 Y127.19 E.13978
G1 X135.134 Y127.19 E.01314
G1 X135.134 Y131.648 E.13978
G1 X134.715 Y131.648 E.01314
G1 X134.715 Y127.19 E.13978
G1 X134.296 Y127.169 E.01315
G1 X134.296 Y131.648 E.14044
G1 X133.877 Y131.648 E.01314
G1 X133.877 Y126.888 E.14925
G1 X133.626 Y126.469 E.01531
G1 X133.626 Y113.161 E.41726
G1 X133.877 Y112.743 E.01529
G1 X133.877 Y107.983 E.14925
G1 X134.296 Y107.983 E.01314
G1 X134.296 Y112.462 E.14044
G1 X134.715 Y112.441 E.01315
G1 X134.715 Y107.983 E.13978
G1 X135.134 Y107.983 E.01314
G1 X135.134 Y112.441 E.13978
G1 X135.553 Y112.441 E.01314
G1 X135.553 Y107.983 E.13978
G1 X135.972 Y107.983 E.01314
G1 X135.972 Y112.441 E.13978
G1 X136.391 Y112.441 E.01314
G1 X136.391 Y107.983 E.13978
G1 X136.81 Y107.983 E.01314
G1 X136.81 Y112.441 E.13978
G1 X137.229 Y112.441 E.01314
G1 X137.229 Y107.983 E.13978
G1 X137.648 Y107.983 E.01314
G1 X137.648 Y112.441 E.13978
G1 X138.067 Y112.441 E.01314
G1 X138.067 Y107.983 E.13978
G1 X138.486 Y107.983 E.01314
G1 X138.486 Y112.441 E.13978
G1 X138.905 Y112.441 E.01314
G1 X138.905 Y107.983 E.13978
G1 X139.324 Y107.983 E.01314
G1 X139.324 Y112.441 E.13978
G1 X139.743 Y112.441 E.01314
G1 X139.743 Y107.983 E.13978
G1 X140.162 Y107.983 E.01314
G1 X140.162 Y112.441 E.13978
G1 X140.581 Y112.441 E.01314
G1 X140.581 Y107.983 E.13978
G1 X141 Y107.983 E.01314
G1 X141 Y112.441 E.13978
G1 X141.419 Y112.441 E.01314
G1 X141.419 Y107.983 E.13978
G1 X141.838 Y107.983 E.01314
G1 X141.838 Y112.441 E.13978
G1 X142.257 Y112.441 E.01314
G1 X142.257 Y107.983 E.13978
G1 X142.676 Y107.983 E.01314
G1 X142.676 Y112.441 E.13978
G1 X143.095 Y112.441 E.01314
M73 Q5 S22
G1 X143.095 Y107.983 E.13978
G1 X143.514 Y107.983 E.01314
G1 X143.514 Y112.441 E.13978
M73 P5 R22
G1 X143.933 Y112.441 E.01314
G1 X143.933 Y107.983 E.13978
G1 X144.352 Y107.983 E.01314
G1 X144.352 Y112.441 E.13978
G1 X144.771 Y112.441 E.01314
G1 X144.771 Y107.983 E.13978
G1 X145.19 Y107.983 E.01314
G1 X145.19 Y112.441 E.13978
G1 X145.609 Y112.441 E.01314
G1 X145.609 Y107.983 E.13978
G1 X146.028 Y107.983 E.01314
G1 X146.028 Y112.441 E.13978
G1 X146.447 Y112.441 E.01314
G1 X146.447 Y107.983 E.13978
G1 X146.866 Y107.983 E.01314
G1 X146.866 Y112.441 E.13978
G1 X147.285 Y112.441 E.01314
G1 X147.285 Y107.983 E.13978
G1 X147.704 Y107.983 E.01314
G1 X147.704 Y112.441 E.13978
G1 X148.123 Y112.441 E.01314
G1 X148.123 Y107.983 E.13978
G1 X148.542 Y107.983 E.01314
G1 X148.542 Y112.441 E.13978
G1 X148.961 Y112.441 E.01314
G1 X148.961 Y107.983 E.13978
G1 X149.38 Y107.983 E.01314
G1 X149.38 Y112.441 E.13978
G1 X149.799 Y112.441 E.01314
G1 X149.799 Y107.983 E.13978
G1 X150.217 Y107.983 E.01311
G1 X150.217 Y112.441 E.13978
G1 X150.636 Y112.441 E.01314
G1 X150.636 Y107.983 E.13978
G1 X151.055 Y107.983 E.01314
G1 X151.055 Y112.441 E.13978
G1 X151.474 Y112.441 E.01314
G1 X151.474 Y107.983 E.13978
G1 X151.893 Y107.983 E.01314
G1 X151.893 Y112.441 E.13978
G1 X152.312 Y112.441 E.01314
G1 X152.312 Y107.983 E.13978
G1 X152.731 Y107.983 E.01314
G1 X152.731 Y112.441 E.13978
G1 X153.15 Y112.441 E.01314
G1 X153.15 Y107.983 E.13978
G1 X153.569 Y107.983 E.01314
G1 X153.569 Y112.441 E.13978
G1 X153.988 Y112.441 E.01314
G1 X153.988 Y107.983 E.13978
G1 X154.407 Y107.983 E.01314
G1 X154.407 Y112.441 E.13978
G1 X154.826 Y112.441 E.01314
G1 X154.826 Y107.983 E.13978
G1 X155.245 Y107.983 E.01314
G1 X155.245 Y112.441 E.13978
G1 X155.664 Y112.441 E.01314
G1 X155.664 Y107.983 E.13978
G1 X156.083 Y107.983 E.01314
G1 X156.083 Y112.441 E.13978
G1 X156.502 Y112.441 E.01314
G1 X156.502 Y107.983 E.13978
G1 X156.921 Y107.983 E.01314
G1 X156.921 Y112.441 E.13978
G1 X157.34 Y112.441 E.01314
G1 X157.34 Y107.983 E.13978
G1 X157.759 Y107.983 E.01314
G1 X157.759 Y112.441 E.13978
G1 X158.178 Y112.441 E.01314
G1 X158.178 Y107.983 E.13978
G1 X158.597 Y107.983 E.01314
G1 X158.597 Y112.441 E.13978
G1 X159.016 Y112.441 E.01314
G1 X159.016 Y107.983 E.13978
G1 X159.435 Y107.983 E.01314
G1 X159.435 Y112.441 E.13978
G1 X159.854 Y112.524 E.01339
G1 X159.854 Y107.813 E.14771
;WIPE_START
G1 F8640
G1 X159.854 Y111.278 E-.8
;WIPE_END
G1 Z.6 F10800
G1 X133.458 Y131.817
G1 Z.2
G1 E.8 F2100
G1 F1200
G1 X133.458 Y107.983 E.7473
G1 X133.039 Y107.983 E.01314
G1 X133.039 Y131.648 E.742
G1 X132.62 Y131.648 E.01314
G1 X132.62 Y107.983 E.742
G1 X132.201 Y107.983 E.01314
M73 P6 R22
M73 Q6 S22
G1 X132.201 Y131.648 E.742
G1 X131.783 Y131.648 E.01311
G1 X131.783 Y107.983 E.742
G1 X131.475 Y107.983 E.00966
M73 P6 R21
G1 X131.475 Y110.29 E.07233
G1 X131.364 Y110.29 E.00348
G1 X131.364 Y129.341 E.59733
G1 X130.945 Y129.341 E.01314
G1 X130.945 Y110.29 E.59733
G1 X130.526 Y110.29 E.01314
G1 X130.526 Y129.341 E.59733
G1 X130.107 Y129.341 E.01314
G1 X130.107 Y110.29 E.59733
G1 X129.688 Y110.29 E.01314
G1 X129.688 Y129.341 E.59733
G1 X129.269 Y129.341 E.01314
M73 Q6 S21
G1 X129.269 Y110.29 E.59733
G1 X128.85 Y110.29 E.01314
G1 X128.85 Y117.805 E.23563
G1 X128.431 Y117.805 E.01314
G1 X128.431 Y110.29 E.23563
G1 X128.012 Y110.29 E.01314
G1 X128.012 Y117.975 E.24096
;WIPE_START
G1 F8640
G1 X128.012 Y114.51 E-.8
;WIPE_END
G1 Z.6 F10800
G1 X128.85 Y129.51
G1 Z.2
G1 E.8 F2100
G1 F1200
G1 X128.85 Y121.825 E.24096
G1 X128.431 Y121.825 E.01314
G1 X128.431 Y129.341 E.23566
G1 X128.012 Y129.341 E.01314
G1 X128.012 Y121.656 E.24096
G1 X127.593 Y129.51 F10800
G1 F1200
G1 X127.593 Y110.29 E.60263
G1 X127.174 Y110.29 E.01314
G1 X127.174 Y129.341 E.59733
G1 X126.755 Y129.341 E.01314
M73 P7 R21
M73 Q7 S21
G1 X126.755 Y110.29 E.59733
G1 X126.336 Y110.29 E.01314
G1 X126.336 Y129.341 E.59733
G1 X125.917 Y129.341 E.01314
G1 X125.917 Y110.29 E.59733
G1 X125.498 Y110.29 E.01314
G1 X125.498 Y129.341 E.59733
G1 X125.079 Y129.341 E.01314
G1 X125.079 Y110.29 E.59733
G1 X124.66 Y110.29 E.01314
G1 X124.66 Y129.341 E.59733
G1 X124.241 Y129.341 E.01314
G1 X124.241 Y110.29 E.59733
G1 X123.822 Y110.29 E.01314
G1 X123.822 Y129.341 E.59733
G1 X123.403 Y129.341 E.01314
G1 X123.403 Y110.29 E.59733
G1 X122.984 Y110.29 E.01314
G1 X122.984 Y129.341 E.59733
G1 X122.565 Y129.341 E.01314
G1 X122.565 Y110.29 E.59733
G1 X122.146 Y110.29 E.01314
G1 X122.146 Y129.341 E.59733
G1 X121.727 Y129.341 E.01314
G1 X121.727 Y110.29 E.59733
G1 X121.308 Y110.29 E.01314
G1 X121.308 Y129.341 E.59733
G1 X120.889 Y129.341 E.01314
M73 Q8 S21
G1 X120.889 Y110.29 E.59733
G1 X120.47 Y110.29 E.01314
M73 P8 R21
G1 X120.47 Y129.341 E.59733
G1 X120.051 Y129.341 E.01314
G1 X120.051 Y110.29 E.59733
G1 X119.632 Y110.29 E.01314
G1 X119.632 Y129.341 E.59733
G1 X119.213 Y129.341 E.01314
G1 X119.213 Y110.29 E.59733
G1 X118.794 Y110.29 E.01314
G1 X118.794 Y129.341 E.59733
G1 X118.375 Y129.341 E.01314
G1 X118.375 Y110.29 E.59733
G1 X117.956 Y110.29 E.01314
G1 X117.956 Y129.51 E.60263
;WIPE_START
G1 F8640
G1 X117.956 Y126.045 E-.8
;WIPE_END
G1 Z.6 F10800
G1 X135.187 Y125.628
G1 Z.2
G1 E.8 F2100
;TYPE:Perimeter
;WIDTH:0.419999
G1 F1200
G1 X135.187 Y114.002 E.36452
G1 X158.813 Y114.002 E.74078
G1 X158.813 Y119.815 E.18226
G1 X158.813 Y125.628 E.18226
G1 X135.247 Y125.628 E.73889
G1 X134.81 Y126.005 F10800
;TYPE:External perimeter
G1 F1200
G1 X134.81 Y113.625 E.38817
G1 X159.19 Y113.625 E.76442
G1 X159.19 Y119.815 E.19408
M73 Q9 S21
G1 X159.19 Y126.005 E.19408
M73 P9 R21
G1 X134.87 Y126.005 E.76254
;WIPE_START
G1 F8640
G1 X134.81 Y126.005 E-.01385
G1 X134.81 Y122.6 E-.78615
;WIPE_END
G1 Z.6 F10800
G1 X136.244 Y123.332
G1 Z.2
G1 E.8 F2100
;TYPE:Perimeter
G1 F1200
G1 X136.213 Y123.237 E.00313
G1 X136.213 Y122.594 E.02016
G1 X136.326 Y122.255 E.0112
G1 X136.561 Y122.072 E.00934
G1 X136.779 Y122.028 E.00697
G1 X142.213 Y122.028 E.17038
G1 X142.213 Y117.802 E.1325
G1 X136.779 Y117.802 E.17038
G1 X136.561 Y117.759 E.00697
G1 X136.326 Y117.576 E.00934
